assets/svg/action_wallet_arrival_time.svg

<svg width="81" height="80" viewBox="0 0 81 80" fill="none" xmlns="http://www.w3.org/2000/svg">
<path d="M75.5126 57.4048C75.8564 57.1313 76.3626 57.3766 76.3626 57.8141V64.811C76.3627 65.9045 76.0777 66.9791 75.5357 67.9288C74.9937 68.8785 74.2135 69.6705 73.272 70.2266L69.6579 72.3626C68.9235 72.797 68.0142 72.1891 68.1314 71.3454C68.3176 70.0091 68.9828 68.7859 70.0032 67.9032C71.753 66.3899 72.848 64.2571 73.0579 61.9532C73.1387 61.0686 73.3978 60.2095 73.8197 59.4277C74.2416 58.646 74.8175 57.9578 75.5126 57.4048Z" fill="#E1EAF8"/>
<path d="M16.9384 73.3797C17.2399 73.3797 17.4852 73.1344 17.4852 72.8329V61.961C17.6602 61.9141 17.8321 61.8438 17.993 61.7516L27.1884 56.4422C27.4493 56.2907 27.5399 55.9563 27.3884 55.6954C27.2368 55.4344 26.9024 55.3438 26.6415 55.4954L17.4462 60.8047C17.1337 60.986 16.7446 60.986 16.4305 60.8047L7.0821 55.4063C6.82116 55.2563 6.48679 55.3454 6.33523 55.6063C6.18366 55.8672 6.27429 56.2016 6.53523 56.3532L15.8837 61.7501C16.0446 61.8438 16.2165 61.9126 16.3915 61.9594V72.8313C16.3913 72.9033 16.4053 72.9745 16.4327 73.0411C16.46 73.1076 16.5003 73.1681 16.5511 73.219C16.6019 73.27 16.6623 73.3104 16.7287 73.338C16.7952 73.3655 16.8664 73.3797 16.9384 73.3797Z" fill="#9A9A9A"/>
<path d="M69.0016 47.8954L77.4922 52.797C78.1422 53.172 78.5469 53.872 78.5484 54.6235V68.8329C78.5484 69.5845 78.1438 70.2845 77.4938 70.6595L65.1875 77.7642C64.8625 77.9517 64.4969 78.0454 64.1328 78.0454C63.7687 78.0454 63.4031 77.9517 63.0781 77.7642L52.9207 71.8996C52.5565 71.6893 52.5564 71.1638 52.9205 70.9534C53.0896 70.8556 53.298 70.8556 53.4671 70.9532L63.6234 76.8173C63.7779 76.9063 63.953 76.9532 64.1312 76.9532C64.3095 76.9532 64.4846 76.9063 64.6391 76.8173L76.9453 69.7126C77.2578 69.5313 77.4531 69.1938 77.4531 68.8329V54.6235C77.4531 54.261 77.2578 53.9251 76.9453 53.7438L68.4547 48.8423C68.1937 48.6907 68.1031 48.3563 68.2547 48.0954C68.4062 47.8345 68.7406 47.7454 69.0016 47.8954Z" fill="#9A9A9A"/>
<path d="M50.8109 54.6235V65.5413C50.8109 65.7363 50.7071 65.9166 50.5384 66.0144C50.1739 66.2259 49.7172 65.9628 49.7172 65.5413V54.6267C49.7172 53.8751 50.1219 53.1751 50.7719 52.8001L60.5758 47.1396C60.9393 46.9297 61.3937 47.192 61.3937 47.6118C61.3937 47.8066 61.2898 47.9867 61.1211 48.0841L51.3187 53.7438C51.0062 53.9251 50.8109 54.2626 50.8109 54.6235Z" fill="#9A9A9A"/>
<path d="M3.57813 52.797L13.3847 47.136C13.7491 46.9256 14.2047 47.1886 14.2047 47.6094C14.2047 47.8048 14.1005 47.9853 13.9313 48.0829L4.125 53.7438C3.8125 53.9251 3.61719 54.2626 3.61719 54.6235V68.8329C3.61719 69.1954 3.8125 69.5313 4.125 69.7126L16.4313 76.8173C16.7453 76.9985 17.1344 76.9985 17.4469 76.8173L26.7234 71.0392C26.9844 70.8876 27.3188 70.9782 27.4703 71.2392C27.6219 71.5001 27.5312 71.8345 27.2703 71.986L17.9938 77.7642C17.6688 77.9517 17.3031 78.0454 16.9391 78.0454C16.575 78.0454 16.2094 77.9517 15.8844 77.7642L3.57813 70.6595C2.92813 70.2845 2.52344 69.5845 2.52344 68.8329V54.6235C2.52344 53.872 2.92813 53.172 3.57813 52.797Z" fill="#9A9A9A"/>
<path d="M29.7531 53.7438L19.9462 48.0826C19.7774 47.9851 19.6733 47.8051 19.673 47.6101C19.6725 47.1893 20.128 46.9259 20.4925 47.1363L30.2984 52.797C30.95 53.172 31.3531 53.872 31.3531 54.6251V65.5662C31.3531 65.9867 30.8978 66.2494 30.5338 66.039C30.3649 65.9415 30.2609 65.7612 30.2609 65.5662V54.6235C30.2609 54.261 30.0656 53.9251 29.7531 53.7438Z" fill="#9A9A9A"/>
<path d="M29.5 69L38.5392 73.9305C39.7579 74.5952 41.234 74.5806 42.4392 73.8919L51 69" stroke="#E1EAF8" stroke-linecap="round" stroke-linejoin="round"/>
<path d="M64.1298 73.3799C64.4313 73.3799 64.6766 73.1346 64.6766 72.833V61.9611C64.8516 61.9143 65.0235 61.844 65.1844 61.7518L74.3798 56.4424C74.6407 56.2908 74.7313 55.9565 74.5798 55.6955C74.4282 55.4346 74.0938 55.344 73.8329 55.4955L64.6376 60.8049C64.3251 60.9861 63.9344 60.9861 63.6219 60.8049L54.2735 55.408C54.0126 55.258 53.6782 55.3471 53.5266 55.608C53.3751 55.869 53.4657 56.2033 53.7266 56.3549L63.0751 61.7518C63.236 61.8455 63.4079 61.9143 63.5829 61.9611V72.833C63.5829 73.1346 63.8282 73.3799 64.1298 73.3799Z" fill="#9A9A9A"/>
<path d="M40.5 40.5C47.9561 40.5 54 34.4561 54 27C54 19.544 47.9561 13.5 40.5 13.5C33.044 13.5 27 19.544 27 27C27 34.4561 33.044 40.5 40.5 40.5Z" fill="#0166FF" stroke="#0166FF" stroke-width="2.25" stroke-linecap="round" stroke-linejoin="round"/>
<path d="M40.5078 18.9004V27.0071L46.2311 32.7311" stroke="white" stroke-width="2.25" stroke-linecap="round" stroke-linejoin="round"/>
<path d="M17.5 51.5V40.1407C17.5 38.8033 18.1684 37.5544 19.2812 36.8125L22.75 34.5" stroke="#E1EAF8" stroke-linecap="round"/>
<path d="M65 51.5V40.1407C65 38.8033 64.3316 37.5544 63.2188 36.8125L59.75 34.5" stroke="#E1EAF8" stroke-linecap="round"/>
<path d="M68.2563 27.439C68.1832 27.439 68.1102 27.423 68.04 27.3908L64.5942 25.7775C64.5334 25.7491 64.4788 25.709 64.4334 25.6595C64.3881 25.61 64.353 25.552 64.33 25.4889C64.3071 25.4258 64.2968 25.3588 64.2998 25.2917C64.3027 25.2247 64.3189 25.1588 64.3473 25.098C64.3757 25.0372 64.4158 24.9825 64.4653 24.9372C64.5148 24.8919 64.5728 24.8567 64.6359 24.8338C64.699 24.8109 64.766 24.8006 64.8331 24.8035C64.9001 24.8065 64.966 24.8226 65.0268 24.851L68.4726 26.4643C68.5782 26.5134 68.6639 26.5971 68.7154 26.7016C68.767 26.806 68.7813 26.9249 68.7561 27.0386C68.7309 27.1523 68.6676 27.254 68.5767 27.3268C68.4858 27.3996 68.3728 27.4392 68.2563 27.439ZM64.3429 14.2492C64.1573 14.2492 63.979 14.1484 63.8884 13.973C63.8575 13.9133 63.8386 13.8482 63.8329 13.7812C63.8271 13.7142 63.8346 13.6468 63.855 13.5827C63.8754 13.5186 63.9082 13.4592 63.9515 13.4078C63.9949 13.3564 64.0479 13.3141 64.1076 13.2833L67.4862 11.5341C67.6067 11.4717 67.7471 11.4597 67.8765 11.5008C68.0058 11.5419 68.1135 11.6327 68.1759 11.7533C68.2383 11.8738 68.2503 12.0142 68.2092 12.1435C68.1681 12.2729 68.0773 12.3806 67.9567 12.443L64.5782 14.1922C64.5022 14.2317 64.4218 14.2492 64.3429 14.2492ZM11.512 27.439C11.3955 27.4392 11.2825 27.3996 11.1916 27.3268C11.1007 27.254 11.0374 27.1523 11.0121 27.0386C10.9869 26.9249 11.0013 26.806 11.0528 26.7016C11.1044 26.5971 11.1901 26.5134 11.2957 26.4643L14.7415 24.851C14.8023 24.8226 14.8681 24.8065 14.9352 24.8035C15.0023 24.8006 15.0693 24.8109 15.1324 24.8338C15.1955 24.8567 15.2534 24.8919 15.303 24.9372C15.3525 24.9825 15.3926 25.0372 15.421 25.098C15.4494 25.1588 15.4655 25.2247 15.4685 25.2917C15.4714 25.3588 15.4612 25.4258 15.4382 25.4889C15.4153 25.552 15.3802 25.61 15.3348 25.6595C15.2895 25.709 15.2349 25.7491 15.174 25.7775L11.7282 27.3908C11.6581 27.423 11.585 27.439 11.512 27.439ZM15.4254 14.2492C15.3436 14.2487 15.263 14.2292 15.1901 14.1922L11.8115 12.443C11.5602 12.313 11.4623 12.0046 11.5923 11.7533C11.7224 11.5019 12.0307 11.404 12.2821 11.5341L15.6606 13.2833C15.912 13.4133 16.0099 13.7217 15.8798 13.973C15.8368 14.0564 15.7716 14.1262 15.6914 14.1749C15.6112 14.2237 15.5192 14.2494 15.4254 14.2492Z" fill="#0166FF"/>
</svg>

<svg xmlns="http://www.w3.org/2000/svg" width="81" height="80" fill="none"><path fill="#E1EAF8" d="M75.513 57.405a.524.524 0 0 1 .85.41v6.996a6.29 6.29 0 0 1-3.091 5.416l-3.614 2.136a1.018 1.018 0 0 1-1.527-1.018 5.57 5.57 0 0 1 1.872-3.442 8.94 8.94 0 0 0 3.055-5.95 6.58 6.58 0 0 1 2.455-4.548"/><path fill="#9A9A9A" d="M16.938 73.38a.547.547 0 0 0 .547-.547V61.96c.175-.047.347-.117.508-.21l9.195-5.309a.547.547 0 0 0-.546-.947l-9.196 5.31a1.02 1.02 0 0 1-1.016 0l-9.348-5.399a.547.547 0 0 0-.547.947l9.349 5.397c.16.094.332.163.508.21V72.83a.547.547 0 0 0 .546.549M69.002 47.895l8.49 4.902a2.12 2.12 0 0 1 1.056 1.827v14.209c0 .752-.404 1.451-1.054 1.826l-12.306 7.105a2.11 2.11 0 0 1-2.11 0L52.921 71.9a.546.546 0 1 1 .546-.947l10.156 5.864a1.02 1.02 0 0 0 1.016 0l12.306-7.104c.313-.182.508-.52.508-.88v-14.21a1.02 1.02 0 0 0-.508-.88l-8.49-4.9a.547.547 0 0 1 .547-.948M50.81 54.624V65.54a.547.547 0 1 1-1.093 0V54.627c0-.752.405-1.452 1.055-1.827l9.804-5.66a.545.545 0 1 1 .545.944l-9.802 5.66a1.02 1.02 0 0 0-.508.88"/><path fill="#9A9A9A" d="m3.578 52.797 9.807-5.661a.547.547 0 1 1 .546.947l-9.806 5.66a1.02 1.02 0 0 0-.508.88v14.21c0 .362.196.698.508.88l12.306 7.104c.314.182.703.182 1.016 0l9.276-5.778a.547.547 0 0 1 .547.947l-9.276 5.778a2.11 2.11 0 0 1-2.11 0L3.578 70.66a2.12 2.12 0 0 1-1.055-1.826v-14.21c0-.751.405-1.451 1.055-1.826M29.753 53.744l-9.807-5.661a.547.547 0 0 1 .546-.947l9.806 5.661a2.11 2.11 0 0 1 1.055 1.828v10.941a.546.546 0 1 1-1.092 0V54.623a1.02 1.02 0 0 0-.508-.88"/><path stroke="#E1EAF8" stroke-linecap="round" stroke-linejoin="round" d="m29.5 69 9.04 4.93a4 4 0 0 0 3.9-.038L51 69"/><path fill="#9A9A9A" d="M64.13 73.38a.547.547 0 0 0 .547-.547V61.961q.264-.07.507-.21l9.196-5.309a.547.547 0 0 0-.547-.947l-9.195 5.31a1.02 1.02 0 0 1-1.016 0l-9.349-5.397a.547.547 0 0 0-.547.947l9.35 5.397c.16.093.332.162.507.21v10.871c0 .302.245.547.547.547"/><path fill="#0166FF" stroke="#0166FF" stroke-linecap="round" stroke-linejoin="round" stroke-width="2.25" d="M40.5 40.5C47.956 40.5 54 34.456 54 27s-6.044-13.5-13.5-13.5S27 19.544 27 27s6.044 13.5 13.5 13.5"/><path stroke="#fff" stroke-linecap="round" stroke-linejoin="round" stroke-width="2.25" d="M40.508 18.9v8.107l5.723 5.724"/><path stroke="#E1EAF8" stroke-linecap="round" d="M17.5 51.5V40.14a4 4 0 0 1 1.781-3.328L22.75 34.5M65 51.5V40.14a4 4 0 0 0-1.781-3.328L59.75 34.5"/><path fill="#0166FF" d="M68.256 27.439a.5.5 0 0 1-.216-.048l-3.446-1.613a.513.513 0 0 1 .24-.974q.1.005.193.047l3.446 1.613a.51.51 0 0 1-.217.975m-3.913-13.19a.51.51 0 0 1-.235-.966l3.378-1.749a.512.512 0 1 1 .47.909l-3.378 1.75a.5.5 0 0 1-.235.056M11.512 27.44a.511.511 0 0 1-.216-.975l3.446-1.613a.512.512 0 0 1 .432.927l-3.446 1.613a.5.5 0 0 1-.216.048m3.913-13.19a.5.5 0 0 1-.235-.057l-3.378-1.749a.511.511 0 1 1 .47-.909l3.379 1.75a.511.511 0 0 1-.236.965"/></svg>
